src/pos-icons/step-backward-2.svg

<svg height="24" viewBox="0 0 24 24" width="24" xmlns="http://www.w3.org/2000/svg"><path d="m17 5h-3v14h3zm-5 0-11 7 11 7zm10 0h-3v14h3z"/></svg>

<?xml version="1.0" encoding="UTF-8"?><!DOCTYPE svg PUBLIC "-//W3C//DTD SVG 1.1//EN" "http://www.w3.org/Graphics/SVG/1.1/DTD/svg11.dtd"><svg xmlns="http://www.w3.org/2000/svg" xmlns:xlink="http://www.w3.org/1999/xlink" version="1.1" id="mdi-step-backward-2" width="24" height="24" viewBox="0 0 24 24"><path d="M17,5H14V19H17V5M12,5L1,12L12,19V5M22,5H19V19H22V5Z" /></svg>
